packages/sources/assets/src/assets/western-union.svg

<svg width="58" height="40" viewBox="0 0 58 40" fill="none" xmlns="http://www.w3.org/2000/svg">
<rect x="0.5" y="0.5" width="57" height="39" rx="3.5" fill="#333333" stroke="#F3F3F3"/>
<path fill-rule="evenodd" clip-rule="evenodd" d="M43.8071 24.6819C43.8071 24.3053 44.1141 24 44.4927 24C44.8714 24 45.1783 24.3053 45.1783 24.6819C45.1783 24.8538 45.1136 25.0105 45.0078 25.131H43.9777C43.8718 25.0117 43.8071 24.8538 43.8071 24.6819ZM37.9805 27.8234C37.9805 27.8234 38.0628 29.0854 36.6752 29.0854C35.2876 29.0854 35.3711 27.8164 35.3711 27.8164V24.5649H34.4174V27.786C34.4174 29.1333 35.3041 30 36.6752 30C38.0463 30 38.933 29.1333 38.933 27.793V24.5649H37.9793V27.8234H37.9805ZM22.0115 29.7743L21.8116 29.0339L21.7411 29.0713C21.6082 29.1392 21.4577 29.1836 21.306 29.1743C21.0332 29.1579 20.8568 28.9766 20.8568 28.7135L20.8556 26.6526H21.8093V25.9053H20.8556V24.5918L19.9525 24.8327V25.9053H19.1999V26.6526H19.9525L19.9537 28.8281C19.9537 29.5509 20.4076 30 21.1402 30C21.4753 30 21.6929 29.9287 21.9163 29.8222L22.0115 29.7743ZM44.0412 29.9556V25.9041H44.9443V29.9556H44.0412ZM49.7949 27.9298C49.7949 29.1099 48.9036 30 47.7206 30C46.5329 30 45.6381 29.1099 45.6381 27.9298C45.6381 26.7497 46.5329 25.8596 47.7206 25.8596C48.9036 25.8596 49.7949 26.7497 49.7949 27.9298ZM47.7206 26.7006C48.4015 26.7006 48.8953 27.2175 48.8953 27.9298C48.8953 28.6421 48.4015 29.1591 47.7206 29.1591C47.035 29.1591 46.5376 28.6421 46.5376 27.9298C46.5376 27.2175 47.035 26.7006 47.7206 26.7006ZM28.766 25.8678C28.4944 25.9029 28.2098 25.9942 27.9558 26.1965V25.9041H27.0527V29.9556H27.9558V27.4924C27.9558 27.4094 27.9699 27.3275 28.0016 27.2503C28.0793 27.0655 28.2286 26.8713 28.4473 26.7778C28.5943 26.7146 28.7342 26.6936 28.8542 26.6936C28.9847 26.6936 29.1764 26.7146 29.3104 26.7836V25.9181L29.3081 25.9175C29.281 25.9096 29.0235 25.8346 28.766 25.8678ZM9.43391 28.4L10.4664 24.5661H11.4177L9.96543 29.9556H9.01529L7.71002 25.9579L6.40357 29.9556H5.45343L4 24.5649H4.95014L5.98377 28.4L7.22319 24.5661H8.1945L9.43391 28.4ZM13.3862 30C12.1985 29.9965 11.3095 29.1123 11.3071 27.931C11.3071 27.6702 11.3518 27.4082 11.4436 27.1637C11.5835 26.7942 11.8316 26.4678 12.155 26.2374C12.5078 25.9871 12.9405 25.8596 13.3721 25.8596C13.9436 25.8596 14.4057 26.0573 14.7385 26.4117C14.9666 26.6561 15.1206 26.9661 15.21 27.2854C15.29 27.5719 15.2982 27.8596 15.2982 28.1556H12.1985L12.2161 28.2433C12.3302 28.7871 12.7982 29.152 13.3862 29.1532C13.8942 29.152 14.227 28.9146 14.4022 28.7392L15.0207 29.3123C14.6456 29.7392 14.0341 29.9988 13.3862 30ZM14.3702 27.5041L14.3704 27.5053V27.5041H14.3702ZM13.9953 26.8491C14.2043 27.0033 14.3301 27.2437 14.3702 27.5041H12.2208C12.2208 27.5041 12.2961 27.2409 12.4631 27.0491C12.6724 26.807 12.9746 26.6503 13.3074 26.6503C13.5473 26.6503 13.7683 26.6819 13.9953 26.8491ZM24.4468 30C23.2592 29.9965 22.3702 29.1123 22.3678 27.931C22.3678 27.6702 22.4125 27.4082 22.5042 27.1637C22.6442 26.7942 22.8923 26.4678 23.2157 26.2374C23.5684 25.9871 24.0012 25.8596 24.4327 25.8596C25.0042 25.8596 25.4664 26.0573 25.7992 26.4117C26.0273 26.6561 26.1813 26.9661 26.2707 27.2854C26.3507 27.5719 26.3589 27.8596 26.3589 28.1556H23.2592L23.2768 28.2433C23.3909 28.7871 23.8589 29.152 24.4468 29.1532C24.9548 29.152 25.2876 28.9146 25.4628 28.7392L26.0814 29.3123C25.7051 29.7392 25.0948 29.9988 24.4468 30ZM25.4297 27.5041L25.4299 27.5053V27.5041H25.4297ZM25.0548 26.8491C25.2638 27.0033 25.3896 27.2437 25.4297 27.5041H23.2803C23.2803 27.5041 23.3556 27.2409 23.5226 27.0491C23.7319 26.807 24.0341 26.6503 24.3669 26.6503C24.6068 26.6503 24.8278 26.6819 25.0548 26.8491ZM17.5195 27.476C17.1268 27.3836 16.8492 27.2842 16.8445 27.0538C16.8387 26.745 17.1115 26.6515 17.5842 26.6515C17.7794 26.6515 18.3991 26.6503 18.3991 26.6503V25.9029L17.5924 25.9041C16.8833 25.9041 15.992 26.0561 15.992 27.1088C16.0002 27.5813 16.3236 27.9474 16.9257 28.1357C17.0517 28.175 17.1796 28.2056 17.3041 28.2354L17.342 28.2444C17.7606 28.3439 18.1216 28.4444 18.1263 28.7544C18.131 29.0351 17.7547 29.2035 17.4396 29.2094C16.8845 29.2094 16.5176 28.8912 16.4024 28.7754L15.8133 29.3216C15.8133 29.3216 16.3283 29.9977 17.4748 29.9977C18.2262 29.9977 18.9941 29.5135 18.9812 28.7228C18.9671 27.9404 18.2345 27.6456 17.5195 27.476ZM40.6357 26.1509C40.9626 25.9135 41.3365 25.8596 41.6564 25.8596C42.5971 25.8596 43.2439 26.4971 43.2439 27.5006V29.9556H42.3408V27.5591C42.3408 27.0538 42.0021 26.7146 41.5 26.7146C40.9273 26.7146 40.6357 27.1474 40.6357 27.5088V29.9556H39.7326V25.9041H40.6357V26.1509ZM32.0327 25.8596C31.7128 25.8596 31.3389 25.9135 31.012 26.1509V25.9041H30.1089V29.9556H31.012V27.5088C31.012 27.1474 31.3036 26.7146 31.8763 26.7146C32.3784 26.7146 32.7171 27.0538 32.7171 27.5591V29.9556H33.6202V27.5006C33.6202 26.4971 32.9734 25.8596 32.0327 25.8596ZM51.3918 26.1509C51.7187 25.9135 52.0927 25.8596 52.4125 25.8596C53.3544 25.8596 54 26.4971 54 27.5006V29.9556H53.0969V27.5591C53.0969 27.0538 52.7582 26.7146 52.2561 26.7146C51.6834 26.7146 51.3918 27.1474 51.3918 27.5088V29.9556H50.4887V25.9041H51.3918V26.1509Z" fill="#FFDD00"/>
<path fill-rule="evenodd" clip-rule="evenodd" d="M31.4688 21.28L34.4784 10.2208H32.1384L30.3192 17.272L28.1064 10.2208H25.9176L23.7432 17.2192L21.8832 10.2208H19.5168L22.5552 21.28H24.7248L27.0048 13.948L29.2848 21.28H31.4688ZM41.4312 17.032V10.2208H43.8144V16.972C43.8144 18.3352 43.3728 19.492 42.5376 20.3128C41.7024 21.1336 40.5288 21.568 39.1464 21.568C37.7616 21.568 36.5904 21.1336 35.7552 20.3128C34.92 19.4896 34.4784 18.3352 34.4784 16.972V15.3712L35.88 10.2208H36.8616V17.0488C36.8616 17.049 36.8616 17.0498 36.8615 17.0509C36.8597 17.101 36.8274 17.9995 37.4112 18.6208C37.8 19.0336 38.3832 19.2424 39.1464 19.2424C39.9096 19.2424 40.4928 19.0336 40.8816 18.6208C41.4654 17.9995 41.4331 17.101 41.4313 17.0509C41.4312 17.0498 41.4312 17.049 41.4312 17.0488V17.032Z" fill="#FFDD00"/>
<path fill-rule="evenodd" clip-rule="evenodd" d="M15.2304 10.2208L18.2688 21.28H19.0464L16.0056 10.2208H15.2304ZM18.1512 10.2208L21.1896 21.28H20.412L17.376 10.2208H18.1512Z" fill="white"/>
</svg>

<svg width="58" height="40" fill="none" xmlns="http://www.w3.org/2000/svg"><rect x=".5" y=".5" width="57" height="39" rx="3.5" fill="#333" stroke="#F3F3F3"/><path fill-rule="evenodd" clip-rule="evenodd" d="M43.807 24.682c0-.377.307-.682.686-.682.378 0 .685.305.685.682a.678.678 0 0 1-.17.449h-1.03a.676.676 0 0 1-.17-.45Zm-5.827 3.141s.083 1.262-1.305 1.262c-1.387 0-1.304-1.269-1.304-1.269v-3.251h-.954v3.221c0 1.347.887 2.214 2.258 2.214s2.258-.867 2.258-2.207v-3.228h-.954v3.258h.002Zm-15.968 1.951-.2-.74-.07.037a.854.854 0 0 1-.436.103c-.273-.016-.45-.197-.45-.46v-2.061h.953v-.748h-.953v-1.313l-.904.24v1.073H19.2v.748h.753v2.175c0 .723.455 1.172 1.187 1.172.335 0 .553-.071.776-.178l.096-.048Zm22.03.182v-4.052h.902v4.052h-.903Zm5.753-2.026c0 1.18-.891 2.07-2.074 2.07-1.188 0-2.083-.89-2.083-2.07 0-1.18.895-2.07 2.083-2.07 1.183 0 2.074.89 2.074 2.07ZM47.72 26.7c.68 0 1.174.518 1.174 1.23s-.494 1.23-1.174 1.23c-.686 0-1.183-.518-1.183-1.23s.497-1.23 1.183-1.23Zm-18.955-.832a1.605 1.605 0 0 0-.81.329v-.293h-.903v4.052h.903v-2.464c0-.083.014-.165.046-.242a.881.881 0 0 1 .852-.556c.13 0 .322.02.456.09v-.866h-.002a1.454 1.454 0 0 0-.542-.05ZM9.434 28.4l1.032-3.834h.952l-1.453 5.39h-.95L7.71 25.958l-1.306 3.998h-.95L4 24.565h.95L5.984 28.4l1.24-3.834h.97l1.24 3.834Zm3.952 1.6c-1.188-.003-2.076-.888-2.079-2.069 0-.26.045-.523.137-.767.14-.37.388-.696.711-.927.353-.25.786-.377 1.217-.377.572 0 1.034.197 1.367.552.228.244.382.554.471.873.08.287.088.575.088.87h-3.1l.018.088c.114.544.582.909 1.17.91a1.413 1.413 0 0 0 1.016-.414l.619.573c-.375.427-.987.687-1.635.688Zm.984-2.496v.001Zm-.375-.655a.99.99 0 0 1 .375.655h-2.15s.076-.263.243-.455a1.12 1.12 0 0 1 .844-.399c.24 0 .461.032.688.2ZM24.447 30c-1.188-.003-2.077-.888-2.08-2.069 0-.26.046-.523.137-.767.14-.37.388-.696.712-.927a2.11 2.11 0 0 1 1.217-.377c.571 0 1.033.197 1.366.552.228.244.382.554.472.873.08.287.088.575.088.87h-3.1l.018.088c.114.544.582.909 1.17.91.508-.001.84-.238 1.016-.414l.618.573c-.376.427-.986.687-1.634.688Zm.983-2.496v.001Zm-.375-.655a.99.99 0 0 1 .375.655h-2.15s.076-.263.243-.455a1.12 1.12 0 0 1 .844-.399c.24 0 .46.032.688.2Zm-7.535.627c-.393-.092-.67-.192-.675-.422-.006-.309.267-.402.74-.402l.814-.002v-.747l-.807.001c-.709 0-1.6.152-1.6 1.205.008.472.332.838.934 1.027.126.039.254.07.378.1l.038.008c.419.1.78.2.784.51.005.281-.371.45-.686.455-.556 0-.922-.318-1.038-.434l-.589.547s.515.676 1.662.676c.751 0 1.52-.485 1.506-1.275-.014-.783-.747-1.077-1.462-1.247Zm23.116-1.325c.327-.238.7-.291 1.02-.291.941 0 1.588.637 1.588 1.64v2.456h-.903v-2.397c0-.505-.339-.844-.841-.844-.573 0-.864.432-.864.794v2.447h-.903v-4.052h.903v.247Zm-8.603-.291c-.32 0-.694.053-1.021.29v-.246h-.903v4.052h.903v-2.447c0-.362.292-.794.864-.794.502 0 .841.339.841.844v2.397h.903V27.5c0-1.004-.647-1.641-1.587-1.641Zm19.359.29c.327-.236.7-.29 1.02-.29.942 0 1.588.637 1.588 1.64v2.456h-.903v-2.397c0-.505-.339-.844-.84-.844-.574 0-.865.432-.865.794v2.447h-.903v-4.052h.903v.247Zm-19.923-4.87 3.01-11.06h-2.34l-1.82 7.052-2.213-7.051h-2.188l-2.175 6.998-1.86-6.998h-2.366l3.038 11.059h2.17l2.28-7.332 2.28 7.332h2.184Zm9.962-4.248v-6.811h2.383v6.751c0 1.363-.441 2.52-1.276 3.34-.836.822-2.01 1.256-3.392 1.256-1.384 0-2.556-.434-3.39-1.255-.836-.823-1.278-1.978-1.278-3.341v-1.6l1.402-5.151h.982v6.83c-.002.05-.035.949.55 1.57.388.413.971.621 1.734.621.764 0 1.347-.208 1.736-.621.583-.621.551-1.52.55-1.57v-.019Z" fill="#FD0"/><path fill-rule="evenodd" clip-rule="evenodd" d="m15.23 10.22 3.039 11.06h.777l-3.04-11.06h-.776Zm2.921 0 3.039 11.06h-.778l-3.036-11.06h.775Z" fill="#fff"/></svg>
